X: 13771
T: Forster Charlton And His Cat
R: barndance
M: 4/4
K: Gmajor
"G" Bd "D"AB "G"G2F2|"C" EG ce "G"d2B2|"G" dG FG "C" c3 B|"G"Gd BG "D"A4|
"G" B2A2G2F2|"C"EG ce"G"d2B2|"G"dG FG "Em"gd "G"BG|"C"Ec "D"AF "G"G4:|
"G"GB c^c dg dg|"G"gf ed dg Bd|"A" A^c eg fe dc|"D"e f/e/ "A"d^c "D" d4|
"G"Bc dg BA GF|"C"Ee "D"AB G2 F2|"G"Bc ^cd "C"Ec BA|"D"Fc AF"G"G4:|

